X: 1
T: Down Among the Dead Men    [Dm]
O: Playford 1726
B: Playford v.3 1726
R: reel
Z: 2015 John Chambers <jc:trillian.mit.edu>
M: C|
L: 1/8
K: Dm
% - - - - - - - - - - - - - - - - - - - - - - - - - - - - -
A2 |\
"Dm"d2d^c d2A2 | "Gm"B2G2 "A7"A3A | "Gm"B2BA "C"G2F2 | "C7"c2C2 "F"F4 |\
"Dm"d2^c2 d2A2 | "Gm"B2AG "A7"A3A | "Gm"B2A2 "C"G2F2 | "C7"c2C2 "F"F3 ||
A |\
"Dm"d3^c d3e | "C7"f2e2 "F"f4 | "F"FGAB c2c2 | "Gm"GABc d2d2 |\
"Bb"d4 "F"c4 | "C7"B4 "F"A4 "I"| "Dm"fed^c "Gm"d2G2 | "A7"A2A2 "Dm"D2 |] [f2C2]
% - - - - - - - - - - Dance description - - - - - - - - - -
%%center Longways for as many as will.
%%begintext align
%%   The first Man clap Hands twice to his Partner, and turn her by the Right-hand quite round .|
%% The same sides .| Meet all four corner ways, and turn single, then Right and Left half round
%% with the Second Couple, then clap Hands twice to your Partners and both turn to the Right-hand
%% into their proper places.
%%endtext

%%sep 1 1 500

